assets/icons/qvision/format_list_numbered_rtl.svg

<svg xmlns="http://www.w3.org/2000/svg" height="24" viewBox="0 0 24 24" width="24"><path d="M0 0h24v24H0z" fill="none"/><path d="M18 17h2v.5h-1v1h1v.5h-2v1h3v-4h-3zm1-9h1V4h-2v1h1zm-1 3h1.8L18 13.1v.9h3v-1h-1.8l1.8-2.1V10h-3zM2 5h14v2H2zm0 12h14v2H2zm0-6h14v2H2z"/></svg>

<svg width="24" height="24" viewBox="0 0 24 24" fill="none" xmlns="http://www.w3.org/2000/svg">
<g clip-path="url(#clip0_147_2619)">
<path d="M18 17H20V17.5H19V18.5H20V19H18V20H21V16H18V17ZM19 8H20V4H18V5H19V8ZM18 11H19.8L18 13.1V14H21V13H19.2L21 10.9V10H18V11ZM2 5H16V7H2V5ZM2 17H16V19H2V17ZM2 11H16V13H2V11Z" fill="#323232"/>
</g>
<defs>
<clipPath id="clip0_147_2619">
<rect width="24" height="24" fill="white"/>
</clipPath>
</defs>
</svg>
